client/public/img/game/shared/weapons/lewis_gun_world.svg

<svg xmlns="http://www.w3.org/2000/svg" width="180.327" height="39.506" viewBox="0 0 47.712 10.453"><g transform="translate(66.212 -67.86)"><path d="M-65.087 71.793h-.728v2.765h1.179" style="fill:none;fill-opacity:1;stroke:#171717;stroke-width:.79375;stroke-linejoin:round;stroke-dasharray:none;stroke-opacity:1"/><path d="m-55.543 71.121-.97.682.03 2.85.849-.015.258.94.409.454.727-.349 10.88-.53.046-4.168z" style="fill:#4d4d4d;fill-opacity:1;stroke:none;stroke-width:.396875;stroke-linejoin:round;stroke-dasharray:none;stroke-opacity:1"/><path d="M-56.362 74.558c-.881-.255-3.36-.466-4.827 0h-4.254V71.77h4.304c1.08.414 3.684.395 4.706 0" style="fill:#6b422e;fill-opacity:1;stroke:none;stroke-width:.79375;stroke-linecap:round;stroke-linejoin:round;stroke-dasharray:none;stroke-opacity:1"/><path d="M-61.445 71.757c.789 1.11.36 1.972 0 2.81h5.303V71.75z" style="fill:#7d4d36;fill-opacity:1;stroke:none;stroke-width:.79375;stroke-linecap:round;stroke-linejoin:round;stroke-dasharray:none;stroke-opacity:1"/><path d="M-56.352 74.57c-.88-.256-3.359-.466-4.827 0h-4.254v-2.788h4.304c1.081.414 3.684.395 4.707 0" style="fill:none;fill-opacity:1;stroke:#20140e;stroke-width:.79375;stroke-linecap:round;stroke-linejoin:round;stroke-dasharray:none;stroke-opacity:1"/><path d="M-53.856 75.648h4.086l.3-.529h6.13v-3.995l-12.142.003-.29.445-.726.17-.003 2.818.793.167c.318 2.265 1.167.887 1.852.921z" style="fill:none;fill-opacity:1;stroke:#171717;stroke-width:.79375;stroke-linejoin:round;stroke-dasharray:none;stroke-opacity:1"/><path d="M-43.005 70.802v4.74h16.987l2.693-.667h4.492v-3.518h-3.817l-3.454-.516z" style="fill:#666;fill-opacity:1;stroke:none;stroke-width:.38192;stroke-linejoin:round;stroke-dasharray:none;stroke-opacity:1"/><path d="M-43.086 71.819h16.593c1.323.028 1.646.474 3.063.527h4.049v-.836h-4.14l-2.436-.604h-17.13Zm0 2.471h16.593c1.323-.03 1.646-.475 3.063-.529h4.049v.837h-4.14l-2.436.603h-17.13Z" style="fill:#595959;fill-opacity:1;stroke:none;stroke-width:.38192;stroke-linejoin:round;stroke-dasharray:none;stroke-opacity:1"/><path d="m-43.512 71.205.74-.74h16.408c1.195.023 1.936.56 3.352.615h3.904v3.855m-24.404-.182.74.739h16.408c1.195-.022 1.936-.56 3.352-.615h3.904v-3.854" style="fill:none;fill-opacity:1;stroke:#171717;stroke-width:.79375;stroke-linejoin:round;stroke-dasharray:none;stroke-opacity:1" transform="matrix(1.00063 0 0 .92548 .02 5.581)"/><path d="m-52.993 72.361-.133.944h1.158l.242.42v.695h1.022v-2.947h-.986l-.064.893-.318.1z" style="fill:gray;fill-opacity:1;stroke:none;stroke-width:.396875;stroke-linejoin:round;stroke-dasharray:none;stroke-opacity:1" transform="translate(-.15 .208)"/><path d="M-50.958 71.565h-.508c-.19.023-.3.11-.292.291v.315c-.006.172-.122.281-.297.297h-.98m2.593 1.932h-1.036c-.191-.023-.3-.11-.292-.291v-.345c-.007-.172-.122-.282-.298-.297h-.98" style="fill:none;fill-opacity:1;stroke:#171717;stroke-width:.396875;stroke-linejoin:round;stroke-dasharray:none;stroke-opacity:1" transform="translate(-.15 .208)"/><path d="M-56.068 72.482h2.97v1.344h-2.97z" style="fill:#5c5c4c;fill-opacity:1;stroke:#191915;stroke-width:.396875;stroke-linejoin:round;stroke-dasharray:none;stroke-opacity:1"/><path d="M-52.712 73.171h-3.642" style="fill:#4d4d4d;fill-opacity:1;stroke:#171717;stroke-width:.397;stroke-linecap:round;stroke-linejoin:round;stroke-dasharray:none;stroke-opacity:1"/><circle cx="-59.498" cy="73.156" r=".329" style="fill:#404040;fill-opacity:1;stroke:#181818;stroke-width:.396875;stroke-linejoin:round;stroke-dasharray:none;stroke-opacity:1"/><path d="M-43.951 71.105v3.98l1.115.5v-4.96z" style="fill:#4d4d4d;fill-opacity:1;stroke:#171717;stroke-width:.396875;stroke-linejoin:round;stroke-dasharray:none;stroke-opacity:1"/><path d="M-41.73 70.615v4.98h1.161v-4.98z" style="fill:#4d4d4d;fill-opacity:1;stroke:#171717;stroke-width:.79375;stroke-linejoin:round;stroke-dasharray:none;stroke-opacity:1"/><g transform="translate(7.932 -9.716)scale(1.13706)"><circle cx="-47.703" cy="72.822" r="4.206" style="fill:#70705c;fill-opacity:1;stroke:none;stroke-width:.349035;stroke-linejoin:round;stroke-dasharray:none;stroke-opacity:1"/><g style="stroke-width:.298316;stroke-dasharray:none"><path d="M-47.369 68.984v7.457m.965-7.331-1.93 7.204m2.83-6.831-3.729 6.458m4.501-5.865-5.273 5.273m5.865-4.501-6.458 3.729m6.831-2.83-7.203 1.93m2.636-4.567 1.93 7.204m-2.829-6.831 3.729 6.458m-4.501-5.865 5.273 5.273m-5.866-4.501 6.458 3.729m-6.83-2.83 7.203 1.93m.127-.965h-7.457" style="fill:#70705c;fill-opacity:1;stroke:#38382e;stroke-width:.298316;stroke-linejoin:round;stroke-dasharray:none;stroke-opacity:1" transform="translate(7.72 -12.252)scale(1.17002)"/></g><circle cx="-47.703" cy="72.822" r="4.247" style="fill:none;fill-opacity:1;stroke:#191915;stroke-width:.698071;stroke-linejoin:round;stroke-dasharray:none;stroke-opacity:1"/><circle cx="-47.703" cy="72.822" r="2.061" style="fill:#545445;fill-opacity:1;stroke:#1a1a15;stroke-width:.349035;stroke-linejoin:round;stroke-dasharray:none;stroke-opacity:1"/><circle cx="-47.703" cy="72.822" r="1.226" style="fill:#70705c;fill-opacity:1;stroke:#1a1a15;stroke-width:.349035;stroke-linejoin:round;stroke-dasharray:none;stroke-opacity:1"/><circle cx="-47.703" cy="72.822" r=".629" style="fill:#404040;fill-opacity:1;stroke:#1a1a15;stroke-width:.349035;stroke-linejoin:round;stroke-dasharray:none;stroke-opacity:1"/></g><path d="M-27.128 70.615v4.98h1.11v-4.98zm3.83.569v3.8h1.25v-3.801z" style="fill:#4d4d4d;fill-opacity:1;stroke:#171717;stroke-width:.79375;stroke-linejoin:round;stroke-dasharray:none;stroke-opacity:1"/><path d="M-20.027 71.184v3.8h1.13v-3.801z" style="fill:#333;fill-opacity:1;stroke:#171717;stroke-width:.79375;stroke-linejoin:round;stroke-dasharray:none;stroke-opacity:1"/><path d="M-30.268 75.374v1.196h1.541v-1.175z" style="fill:#71715b;fill-opacity:1;stroke:#191915;stroke-width:.396875;stroke-linejoin:round;stroke-dasharray:none;stroke-opacity:1"/><path d="M-30.382 70.615v4.98h1.795v-4.98z" style="fill:#554;fill-opacity:1;stroke:#191915;stroke-width:.79375;stroke-linejoin:round;stroke-dasharray:none;stroke-opacity:1"/></g></svg>

<?xml version="1.0" encoding="UTF-8" standalone="no"?>
<svg
   width="180.327"
   height="39.506"
   viewBox="0 0 47.712 10.453"
   version="1.1"
   id="svg22"
   xmlns="http://www.w3.org/2000/svg"
   xmlns:svg="http://www.w3.org/2000/svg">
  <defs
     id="defs22" />
  <g
     transform="translate(66.212 -67.86)"
     id="g22">
    <path
       style="fill:none;fill-opacity:1;stroke:#171717;stroke-width:.79375;stroke-linejoin:round;stroke-dasharray:none;stroke-opacity:1"
       d="M-65.087 71.793h-.728v2.765h1.179"
       id="path1" />
    <path
       style="fill:#4d4d4d;fill-opacity:1;stroke:none;stroke-width:.396875;stroke-linejoin:round;stroke-dasharray:none;stroke-opacity:1"
       d="m-55.543 71.121-.97.682.03 2.85.849-.015.258.94.409.454.727-.349 10.88-.53.046-4.168z"
       id="path2" />
    <path
       style="fill:#6b422e;fill-opacity:1;stroke:none;stroke-width:.79375;stroke-linecap:round;stroke-linejoin:round;stroke-dasharray:none;stroke-opacity:1"
       d="M-56.362 74.558c-.881-.255-3.36-.466-4.827 0h-4.254V71.77h4.304c1.08.414 3.684.395 4.706 0"
       id="path3" />
    <path
       style="fill:#7d4d36;fill-opacity:1;stroke:none;stroke-width:.79375;stroke-linecap:round;stroke-linejoin:round;stroke-dasharray:none;stroke-opacity:1"
       d="M-61.445 71.757c.789 1.11.36 1.972 0 2.81h5.303V71.75z"
       id="path4" />
    <path
       style="fill:none;fill-opacity:1;stroke:#20140e;stroke-width:.79375;stroke-linecap:round;stroke-linejoin:round;stroke-dasharray:none;stroke-opacity:1"
       d="M-56.352 74.57c-.88-.256-3.359-.466-4.827 0h-4.254v-2.788h4.304c1.081.414 3.684.395 4.707 0"
       id="path5" />
    <path
       style="fill:none;fill-opacity:1;stroke:#171717;stroke-width:.79375;stroke-linejoin:round;stroke-dasharray:none;stroke-opacity:1"
       d="M-53.856 75.648h4.086l.3-.529h6.13v-3.995l-12.142.003-.29.445-.726.17-.003 2.818.793.167c.318 2.265 1.167.887 1.852.921z"
       id="path6" />
    <path
       style="fill:#666;fill-opacity:1;stroke:none;stroke-width:.38192;stroke-linejoin:round;stroke-dasharray:none;stroke-opacity:1"
       d="M-43.005 70.802v4.74h16.987l2.693-.667h4.492v-3.518h-3.817l-3.454-.516z"
       id="path7" />
    <path
       style="fill:#595959;fill-opacity:1;stroke:none;stroke-width:.38192;stroke-linejoin:round;stroke-dasharray:none;stroke-opacity:1"
       d="M-43.086 71.819h16.593c1.323.028 1.646.474 3.063.527h4.049v-.836h-4.14l-2.436-.604h-17.13ZM-43.086 74.29h16.593c1.323-.03 1.646-.475 3.063-.529h4.049v.837h-4.14l-2.436.603h-17.13Z"
       id="path8" />
    <path
       style="fill:none;fill-opacity:1;stroke:#171717;stroke-width:.79375;stroke-linejoin:round;stroke-dasharray:none;stroke-opacity:1"
       d="m-43.512 71.205.74-.74h16.408c1.195.023 1.936.56 3.352.615h3.904v3.855m-24.404-.182.74.739h16.408c1.195-.022 1.936-.56 3.352-.615h3.904v-3.854"
       transform="matrix(1.00063 0 0 .92548 .02 5.581)"
       id="path9" />
    <path
       style="fill:gray;fill-opacity:1;stroke:none;stroke-width:.396875;stroke-linejoin:round;stroke-dasharray:none;stroke-opacity:1"
       d="m-52.993 72.361-.133.944h1.158l.242.42v.695h1.022v-2.947h-.986l-.064.893-.318.1z"
       transform="translate(-.15 .208)"
       id="path10" />
    <path
       style="fill:none;fill-opacity:1;stroke:#171717;stroke-width:.396875;stroke-linejoin:round;stroke-dasharray:none;stroke-opacity:1"
       d="M-50.958 71.565h-.508c-.19.023-.3.11-.292.291v.315c-.006.172-.122.281-.297.297h-.98M-50.442 74.4h-1.036c-.191-.023-.3-.11-.292-.291v-.345c-.007-.172-.122-.282-.298-.297h-.98"
       transform="translate(-.15 .208)"
       id="path11" />
    <path
       style="fill:#5c5c4c;fill-opacity:1;stroke:#191915;stroke-width:.396875;stroke-linejoin:round;stroke-dasharray:none;stroke-opacity:1"
       d="M-56.068 72.482h2.97v1.344h-2.97z"
       id="path12" />
    <path
       style="fill:#4d4d4d;fill-opacity:1;stroke:#171717;stroke-width:.397;stroke-linecap:round;stroke-linejoin:round;stroke-dasharray:none;stroke-opacity:1"
       d="M-52.712 73.171h-3.642"
       id="path13" />
    <circle
       style="fill:#404040;fill-opacity:1;stroke:#181818;stroke-width:.396875;stroke-linejoin:round;stroke-dasharray:none;stroke-opacity:1"
       cx="-59.498"
       cy="73.156"
       r=".329"
       id="circle13" />
    <path
       style="fill:#4d4d4d;fill-opacity:1;stroke:#171717;stroke-width:.396875;stroke-linejoin:round;stroke-dasharray:none;stroke-opacity:1"
       d="M-43.951 71.105v3.98l1.115.5v-4.96z"
       id="path14" />
    <path
       style="fill:#4d4d4d;fill-opacity:1;stroke:#171717;stroke-width:.79375;stroke-linejoin:round;stroke-dasharray:none;stroke-opacity:1"
       d="M-41.73 70.615v4.98h1.161v-4.98z"
       id="path15" />
    <g
       transform="matrix(1.13706 0 0 1.13706 7.932 -9.716)"
       id="g19">
      <circle
         style="fill:#70705c;fill-opacity:1;stroke:none;stroke-width:.349035;stroke-linejoin:round;stroke-dasharray:none;stroke-opacity:1"
         cx="-47.703"
         cy="72.822"
         r="4.206"
         id="circle15" />
      <g
         style="stroke-width:.298316;stroke-dasharray:none"
         id="g16">
        <path
           style="fill:#70705c;fill-opacity:1;stroke:#38382e;stroke-width:.298316;stroke-linejoin:round;stroke-dasharray:none;stroke-opacity:1"
           d="M-47.369 68.984v7.457M-46.404 69.11l-1.93 7.204M-45.504 69.483l-3.729 6.458M-44.732 70.076l-5.273 5.273M-44.14 70.848l-6.458 3.729M-43.767 71.747l-7.203 1.93M-48.334 69.11l1.93 7.204M-49.233 69.483l3.729 6.458M-50.005 70.076l5.273 5.273M-50.598 70.848l6.458 3.729M-50.97 71.747l7.203 1.93M-43.64 72.712h-7.457"
           transform="matrix(1.17002 0 0 1.17002 7.72 -12.252)"
           id="path16" />
      </g>
      <circle
         style="fill:none;fill-opacity:1;stroke:#191915;stroke-width:.698071;stroke-linejoin:round;stroke-dasharray:none;stroke-opacity:1"
         cx="-47.703"
         cy="72.822"
         r="4.247"
         id="circle16" />
      <circle
         style="fill:#545445;fill-opacity:1;stroke:#1a1a15;stroke-width:.349035;stroke-linejoin:round;stroke-dasharray:none;stroke-opacity:1"
         cx="-47.703"
         cy="72.822"
         r="2.061"
         id="circle17" />
      <circle
         style="fill:#70705c;fill-opacity:1;stroke:#1a1a15;stroke-width:.349035;stroke-linejoin:round;stroke-dasharray:none;stroke-opacity:1"
         cx="-47.703"
         cy="72.822"
         r="1.226"
         id="circle18" />
      <circle
         style="fill:#404040;fill-opacity:1;stroke:#1a1a15;stroke-width:.349035;stroke-linejoin:round;stroke-dasharray:none;stroke-opacity:1"
         cx="-47.703"
         cy="72.822"
         r=".629"
         id="circle19" />
    </g>
    <path
       style="fill:#4d4d4d;fill-opacity:1;stroke:#171717;stroke-width:.79375;stroke-linejoin:round;stroke-dasharray:none;stroke-opacity:1"
       d="M-27.128 70.615v4.98h1.11v-4.98zM-23.298 71.184v3.8h1.25v-3.801z"
       id="path19" />
    <path
       style="fill:#333;fill-opacity:1;stroke:#171717;stroke-width:.79375;stroke-linejoin:round;stroke-dasharray:none;stroke-opacity:1"
       d="M-20.027 71.184v3.8h1.13v-3.801z"
       id="path20" />
    <path
       style="fill:#71715b;fill-opacity:1;stroke:#191915;stroke-width:.396875;stroke-linejoin:round;stroke-dasharray:none;stroke-opacity:1"
       d="M-30.268 75.374v1.196h1.541v-1.175z"
       id="path21" />
    <path
       style="fill:#554;fill-opacity:1;stroke:#191915;stroke-width:.79375;stroke-linejoin:round;stroke-dasharray:none;stroke-opacity:1"
       d="M-30.382 70.615v4.98h1.795v-4.98z"
       id="path22" />
  </g>
</svg>
